X: 1
T: Fraser's Jig
C: D.H. MacEachern
R: jig
S: Fiddle Hell Online 2021-5-18 Wendy McIsaac workshop handout
Z: 2021 John Chambers <jc:trillian.mit.edu>
N: Some bars had counts of less than 6 8th notes; dots and lengths adjusted to reach the jig rhythm.
M: 6/8
L: 1/8
K: Gm
F | GAG d3 | dcd g3 | {g}f2c dfd | {d}cAF AGF || {A}GAG d3 | dcd g2a |
| {g}f2d cAF | {A}G3 G2 :: d | g3 def | gfg d2e | f2c dfd | cAF F3 |
|[1 g3 def | gfg d2e | {g}f2d cAF | G3 G2 :|[2 GAG dcd | {a}gfg a2g | f2d cAF | {A}G3 G2 |]
